X: 5
T: Paddy Fahey's
R: jig
M: 6/8
L: 1/8
K: Dmaj
|: A |DFA d2 e | dcA GFG | AFD =cBc | edc AGE |
DFA d2 e | dcA GFG | Adc AGE | EDD D2 :|
|: A |dcd fed | cA^G A2 B | =cBc edc | BGB cde |
Add fed | cAG EFG | Adc AGE | EDD D2 :|


Tune 124	Setting 849

